X:1
T:Someone Is Praying for You
T:Someone Is Praying for You
T:Isaac Hickman Meredith
T:Cora Merrill Adams, 1912
T:Public Domain Courtesy of the Cyber Hymnal™
T:Public Domain Courtesy of the Cyber Hymnal™
C:Isaac Hickman Meredith
Z:Public Domain
Z:Courtesy of the Cyber Hymnal™
%%score ( 1 2 ) ( 3 4 )
L:1/8
Q:1/4=130
M:3/4
K:C
V:1 treble 
V:2 treble 
V:3 bass 
V:4 bass 
V:1
 [CE]2 [DF]2 [^D^F]2 | [EG]2 [CE]2 [Ec]2 | [Fc]2 [GB]2 [FA]2 | [EG]6 | [DG]2 [B,D]2 [DF]2 | %5
w: 1.~Pil- grims of|earth on your|jour- ney thro’|life,|Joy- ous in|
w: 2.~Is it a|fa- ther, his|form bowed with|care?|Bend- ing ’neath|
w: 3.~Is it a|mo- ther, with|sil- ver- y|hair?|Steps slow and|
w: 4.~Is it a|sis- ter, a|bro- ther, or|friend?|Shar- ing life’s|
w: 5.~Je- sus is|wait- ing to|wel- come you|home,|Ten- der- ly|
 [CE]2 [EG]2 [_Ec]2 | [DB]2 [B,D]2 [CA]2 | [B,G]6 | [CE]2 [DF]2 [^D^F]2 | [EG]2 [CE]2 [EG]2 | %10
w: free- dom, or|wea- ry with|strife,|Tid- ings we|bring you, sweet|
w: bur- dens that|some- one should|share,|Work- ing and|hop- ing with|
w: fee- ble, the|form once so|fair,|Keep- ing love’s|lamp trimmed and|
w: bur- dens and|true to the|end,|Thro’ storm and|sun- shine with|
w: call- ing tho’|far you may|roam;|Come to the|Sav- ior so|
 [Gc]2 [Gc]2 [GB]2 | [FA]6 | [^FA]2 [FB]2 [Fc]2 | [Gd]2 [GB]2 G2 | [GB]2 [^FB]3 [FA] | G6 || %16
w: mes- sage so|true:|Some- one who|loves you is|pray- ing for|you.|
w: heart ev- er|true,|Pa- tient- ly|trust- ing, and|pray- ing for|you.|
w: burn- ing so|true,|Wait- ing for|Hea- ven, and|pray- ing for|you.|
w: skies dark or|blue,|Some- one who|loves you is|pray- ing for|you.|
w: lov- ing and|true,|Still there is|mer- cy and|par- don for|you.|
"^Refrain" [Ec]2 [EB]2 [EA]2 | [FB]6 | [FB]2 [FA]2 [FG]2 | [EA]6 | [EA]2 [EG]2 [^CE]2 | %21
w: |||||
w: |||||
w: Pray- ing for|you,|pray- ing for|you,|Plead- ing with|
w: |||||
w: |||||
 [DF]2 [EG]2 [FA]2 | [^FA]2 [FB]2 [Fc]2 | [FB]4 [FG]2 | [Ec]2 [EB]2 [EA]2 | [FB]4 [FG][FG] | %26
w: |||||
w: |||||
w: Hea- ven that|you may be|true; Wher-|e’er you may|go, and what-|
w: |||||
w: |||||
 [FB]2 [FA]2 [FG]2 | [EA]6 | [EA]2 [EG]2 [^CE]2 | [DF]2 [EG]2 [FA]2 |"^rit." [Ge]2 [Ge]3 [Fd] | %31
w: |||||
w: |||||
w: e’er you may|do,|Some- one who|loves you is|pray- ing for|
w: |||||
w: |||||
 [Ec]6 |] %32
w: |
w: |
w: you.|
w: |
w: |
V:2
 x6 | x6 | x6 | x6 | x6 | x6 | x6 | x6 | x6 | x6 | x6 | x6 | x6 | x4 G2 | x6 | (G4 F2) || x6 | x6 | %18
 x6 | x6 | x6 | x6 | x6 | x6 | x6 | x6 | x6 | x6 | x6 | x6 | x6 | x6 |] %32
V:3
 [C,G,]2 [C,G,]2 [C,A,]2 | [C,G,]2 [C,G,]2 (G,_B,) | [F,A,]2 [F,B,]2 [F,C]2 | [C,C]6 | %4
 [G,B,]2 G,2 [G,,G,]2 | [C,G,]2 [C,C]2 [C,G,]2 | [D,G,]2 [D,G,]2 [D,^F,]2 | [G,,G,]6 | %8
 [C,G,]2 [C,B,]2 [C,A,]2 | [C,G,]2 [C,G,]2 [C,C]2 | [E,C]2 [E,C]2 [E,C]2 | [F,C]6 | %12
 [D,C]2 [D,B,]2 [D,A,]2 | [G,B,]2 [G,D]2 B,2 | [D,D]2 [D,D]3 [D,C] | !fermata![G,B,]6 || %16
 [C,G,]2 [C,G,]2 [C,C]2 | [G,D]6 | [G,D]2 [G,C]2 [G,B,]2 | [C,C]6 | [A,^C]2 [A,C]2 A,2 | %21
 [D,A,]2 [D,A,]2 [D,D]2 | [CD]2 [B,D]2 [A,D]2 | [G,D]4 [G,B,]2 | [C,C]2 [C,C]2 [C,C]2 | %25
 [G,D]4 [G,B,][G,B,] | [G,D]2 [G,C]2 [G,B,]2 | [C,C]6 | [A,^C]2 [A,C]2 A,2 | %29
 [D,A,]2 [D,A,]2 [D,D]2 | [G,C]2 [G,B,]3 [G,B,] | [C,G,C]6 |] %32
V:4
 x6 | x4 C,2 | x6 | x6 | x2 G,2 x2 | x6 | x6 | x6 | x6 | x6 | x6 | x6 | x6 | x4 (G,E,) | x6 | x6 || %16
 x6 | x6 | x6 | x6 | x4 A,2 | x6 | x6 | x6 | x6 | x6 | x6 | x6 | x4 A,2 | x6 | x6 | x6 |] %32

